X:1
T: Guiry's Favourite
C:
R:Jig
Q:180
K:C
M:6/8
L:1/16
e^f|g2e2a2 g2e2d2|c2A2B2c4d2|e2a2a2 a2g2e2|e2d2^c2 d2e2^f2|g2e2a2 g2e2d2|c2A2B2 c2d2e2|f2e2d2 e2c2A2|G2F2E2D4e^f|
g2e2a2 g2e2d2|c2A2B2c4d2|e2a2a2 a2g2e2|e2d2^c2 d2e2^f2|g2e2a2 g2e2d2|c2A2B2 c2d2e2|f2e2d2 e2c2A2|G2F2E2D4AB|
c2B2c2A4G2|E2c2B2 c2d2e2|d2e2d2 c2A2G2|A2d2c2 d2e2d2|c2A2c2A4G2|E2c2B2 c2d2e2|f2e2d2 e2c2A2|G2F2E2D4AB|
c2B2c2A4G2|E2c2B2 c2d2e2|d2e2d2 c2A2G2|A2d2c2 d2e2d2|c2A2c2A4G2|E2c2B2 c2d2e2|f2e2d2 e2c2A2|G2F2E2D4||
